X:5003
T:Guballanaun
M:4/4
L:1/8
C:Aidan Crossey
R:Hornpipe
K:D
|:D2d2 f2d2|efed cBAF|D2d2 f2d2|(3efe (3dBA (3ABA (3GFE|
D2d2 f2d2|efed cBAF|D2d2 f2d2|edBc d4:||
|:defg afge|fdBA fdBA|defg afge|edBc d4:||
|:defg a2a2|(3bbbb2 (3aaaa2|defg afge|edBc d4:||
